X: 1
T: Garster's Dream
R: Jig
M: 6/8
L: 1/8
K: G
D |: G2 B BGB|cdc BAG|FGA ABA|AdB AFD|
G2 B BGB|cdc BAG|F2 E DEF|1 G3 G2 D:|2 G3 GBd||
|:gag gdB|ABA AGE|gag gdB|ded def|
gag gdB|AcB AGE|F2 E DEF|1 G3 GBd:|2 G3 G3||
